X:1
T:Passaic -- Hornpipe
Z:Bob Puckette <bpuckette:msn.com> 2003-3-10
R:hornpipe
B:Cole's 1000 Fiddle Tunes
M:2/4
L:1/16
K:A
(ucB)|AEAc ecea|fdfa ecAc|dBfe dcBA|GABc B2 E2|
AEAc ecea|fdfa ecAc|dfed cBAG|A2c2A2:|
|:(uED)|C"4"AGA c"4"AGA|F"0"AEA "0"D"0"AC"4"A|FDFA dcBA|G"4"ABG E2(ED)|
FEFA dcBA|GEGB "4"edcB|Aagf edcB|A2c2A2:|
